src/icons/shield-user.svg

<?xml version="1.0" encoding="UTF-8"?>
<svg xmlns="http://www.w3.org/2000/svg" xmlns:xlink="http://www.w3.org/1999/xlink" width="32" height="32" viewBox="0 0 32 32" version="1.1">
<g id="surface1">
<path style=" stroke:none;fill-rule:nonzero;fill:rgb(0%,0%,0%);fill-opacity:1;" d="M 16 0 C 14.734375 0 13.585938 0.605469 12 1.441406 C 9.957031 2.515625 7.15625 3.980469 2.421875 5.019531 L 1.921875 5.140625 L 1.921875 5.640625 C 1.921875 25.136719 15.601562 31.675781 15.738281 31.738281 L 16.019531 31.878906 L 16.28125 31.738281 C 16.417969 31.671875 30.078125 24.488281 30.078125 5.640625 L 30.078125 5.140625 L 29.578125 5.019531 C 24.84375 3.980469 22.042969 2.515625 20 1.441406 C 18.414062 0.605469 17.265625 0 16 0 Z M 16 8.320312 C 19.535156 8.320312 22.398438 11.183594 22.398438 14.71875 C 22.398438 18.253906 19.535156 21.121094 16 21.121094 C 12.464844 21.121094 9.601562 18.253906 9.601562 14.71875 C 9.601562 11.183594 12.464844 8.320312 16 8.320312 Z M 15.980469 10.019531 C 13.621094 10.0625 13.324219 11.808594 13.839844 13.800781 C 13.746094 13.859375 13.601562 14.023438 13.640625 14.339844 C 13.710938 14.929688 13.949219 15.085938 14.101562 15.101562 C 14.160156 15.648438 14.523438 16.296875 14.71875 16.398438 C 14.71875 16.792969 14.738281 17.089844 14.699219 17.519531 C 14.476562 18.121094 13.632812 18.375 12.800781 18.71875 C 13.675781 19.425781 14.789062 19.839844 16 19.839844 C 17.210938 19.839844 18.324219 19.40625 19.199219 18.699219 C 18.371094 18.355469 17.542969 18.121094 17.320312 17.519531 C 17.28125 17.089844 17.300781 16.792969 17.300781 16.398438 C 17.496094 16.296875 17.84375 15.648438 17.898438 15.101562 C 18.050781 15.085938 18.289062 14.929688 18.359375 14.339844 C 18.398438 14.023438 18.253906 13.859375 18.160156 13.800781 C 18.410156 13.050781 18.921875 10.738281 17.199219 10.5 C 17.023438 10.1875 16.570312 10.019531 15.980469 10.019531 Z M 15.980469 10.019531 "/>
</g>
</svg>

<svg role="img" viewBox="0 0 32 32" xmlns="http://www.w3.org/2000/svg"><path d="M16 0c-1.266 0-2.414.605-4 1.441-2.043 1.075-4.844 2.54-9.578 3.579l-.5.12v.5c0 19.497 13.68 26.036 13.816 26.098l.282.14.261-.14c.137-.066 13.797-7.25 13.797-26.097v-.5l-.5-.121C24.844 3.98 22.043 2.516 20 1.44 18.414.605 17.266 0 16 0m0 8.32a6.397 6.397 0 0 1 6.398 6.399A6.4 6.4 0 0 1 16 21.12a6.4 6.4 0 0 1-6.398-6.402A6.397 6.397 0 0 1 16 8.32m-.02 1.7c-2.359.043-2.656 1.789-2.14 3.78-.094.06-.238.223-.2.54.07.59.31.746.462.762.058.546.421 1.195.617 1.296 0 .395.02.692-.02 1.122-.222.601-1.066.855-1.898 1.199A5.066 5.066 0 0 0 16 19.839c1.21 0 2.324-.433 3.2-1.14-.829-.344-1.657-.578-1.88-1.18-.039-.43-.02-.726-.02-1.12.196-.102.544-.75.598-1.297.153-.016.391-.172.461-.762.04-.317-.105-.48-.199-.54.25-.75.762-3.062-.96-3.3-.177-.312-.63-.48-1.22-.48m0 0" style="stroke:none;fill-rule:nonzero;fill:rgb(0%,0%,0%);fill-opacity:1"/></svg>
